X:1
T:Title
%%score { 1 | 2 }
L:1/8
M:3/4
K:Eb
V:1 treble nm="Grand Piano"
V:2 bass 
V:1
 z2 z2[Q:1/4=92] GE | A3 G [DF]E | E2 D2 D[DF] | [DA]2 [Dc]2 [FB][FA] | G4 EG | B3 [Ge] [Bd][Ac] | %6
 [GB]2 [EG]2 [FB][Fc] | [Fd]2 [FB]2 [DB][Ec] |[M:2/4] [DB]4 |[M:1/4] [GB][Ac] | %10
[M:3/4] [GB]2 [FA]2 [FA][GB] | [FA]2 G2 GA | B3 e BG |[M:2/4] [DF]4 |[M:1/4] [GB][Ac] | %15
[M:3/4] [GB]2 [FA]2 [FA][GB] | [FA]2 G2 GA | BE G2 [DF]2 |[M:2/4] E4 |] %19
V:2
 z2 z2 [E,B,E][E,G,] | [E,CE]3 [E,B,E] [B,,A,][B,,G,] | [B,,G,B,]2 [B,,F,B,]2 [B,,F,B,][B,,B,] | %3
 [B,,B,]2 [B,,B,]2 [D,B,][D,B,] | [E,B,E]4 [E,G,][E,B,E] | [E,G,E]3 [E,B,] [E,A,][E,C] | %6
 [E,E]2 [E,B,]2 [D,B,][C,=A,] | [B,,B,]2 [D,B,]2 [F,B,][F,=A,] |[M:2/4] [B,,B,]4 | %9
[M:1/4] [B,,B,][B,,B,] |[M:3/4] [B,,B,]2 [B,,B,]2 [B,,B,][B,,B,] | %11
 [E,B,]2 [E,B,E]2 [E,B,E][F,B,D] | [G,B,D]3 [G,B,E] [G,B,E][E,B,E] |[M:2/4] [B,,B,]4 | %14
[M:1/4] [B,,B,][B,,B,] |[M:3/4] [B,,B,]2 [B,,B,]2 [B,,B,][B,,B,] | %16
 [E,B,]2 [E,B,E]2 [E,B,E][F,B,D] | [G,B,E][A,C] [B,E]2 [B,,A,]2 |[M:2/4] [E,G,]4 |] %19

